!!!OTL: This Is no Mine Ain House
!!!id: HA014
**kern
*clefG2
*k[b-e-]
*B-:
*M2/2
{8ff
=1
8dd
8ff
8ff
8fff
4ddd
8ccc}
{8bb-
=2
16gg
16aa
8bb-
8ff
8dd
8ee-
8cc
8cc}
{8ff
=3
8dd
8ff
8ff
8fff
4ddd
8ccc}
{8bb-
=4
16gg
16aa
8bb-
8.ff
16ee-
8dd
8b-
8b-}
{8ff
=5
8dd
8ff
8ff
8bb-
8gg
8bb-
8ff}
{8dd
=6
8ee-
8gg
8ff
8dd
8gg
8cc
8cc}
{8ff
=7
8dd
8ff
8ff
8bb-
8gg
8bb-
8ff}
{8dd
=8
8.ee-
16gg
8ff
8ee-
8dd
8b-
8b-}
==
*-
!!!minrhy: 16
!!!meter: 2/2
!!!cut: This Is no Mine Ain House
!!!key: HA014  16 Bb 2/2
!!!fog: a--b--a--bw-aw-c--aw-cw-
!!!bem: die beiden Formteile aw sind identisch, Vorschlge weggelassen
!! Haydn: Volksliedbearbeitungen, Bd1
